X: 15
T: Missa O venus bant &mdash; Kyrie
C: Gaspar van Weerbeke
%%abc-version 2.0
%%abcx-abcm2ps-target-version 5.9.1 (29 Sep 2008)
%%abc-creator hum2abc beta
%%abcx-conversion-date 2022/03/06 13:05:56
%%abc-copyright Copyright 2014, Pavanello, Agnese
%%abc-edited-by Mair-Gruber, Roland
%%humdrum-veritas 1770555467
%%humdrum-veritas-data 2046110735
%%linebreak <none>
%%barnumbers 0
L: 1/4
M: 3/2
N: Derived from Gas0102a-Missa_O_venus_bant-Kyrie.krn
%%staves [1 2 3 4]
V: 1 clef=treble
V: 2 clef=treble-8
V: 3 clef=treble-8
V: 4 clef=bass
K: C
[V:1] G2F2ED- | 
[V:2] G2AAG3/A/ | 
[V:3] z6 | 
[V:4] z6 | 
[V:1] DG2^FGA- | 
[V:2] BcA2Gc- | 
[V:3] z6 | 
[V:4] z6 | 
[V:1] A/G<cB/Ad3/c/ | 
[V:2] cA2d>cB/A/ | 
[V:3] z6 | 
[V:4] z6 | 
[V:1] B/A//G//ADG2^F | 
[V:2] GcBGA2 | 
[V:3] z6 | 
[V:4] zF,G,E,D,2 | 
[V:1] G2BAG/FE//D// | 
[V:2] G3A2B | 
[V:3] z6 | 
[V:4] E,C,B,,C,D,2 | 
[V:1] E2z2A2 | 
[V:2] c6 | 
[V:3] z6 | 
[V:4] C,4A,,2 | 
[V:1] B>A G/F/E/D<EF/ | 
[V:2] B>cdBc3/B/ | 
[V:3] G6- | 
[V:4] G,,4C,2 | 
[V:1] GEF>G A/B/c/d/ | 
[V:2] G2d2cA | 
[V:3] G2A4 | 
[V:4] E,2D,2A,,2 | 
[V:1] BA2G2^F | 
[V:2] BcB/>c/dc/e/f//e//d//c// | 
[V:3] GFG2A2 | 
[V:4] zA,,G,,B,,C,D, | 
[V:1] G2G2z2 | 
[V:2] B>Ac2c3/B/ | 
[V:3] G6 | 
[V:4] E,>C,C,2C,2 | 
[V:1] E>FGAGA- | 
[V:2] G2z2z2 | 
[V:3] c2>c2c3/B/ | 
[V:4] C,>D,E,F,E,F,- | 
[V:1] AcB/AG//F//E3/F/ | 
[V:2] c2F2GA | 
[V:3] A4c2- | 
[V:4] F,C,D,2C,2- | 
[V:1] GAB2G3/E/ | 
[V:2] GcB2B2 | 
[V:3] c2G4 | 
[V:4] C,2z2E,2 | 
[V:1] F>GABAB | 
[V:2] zd2BdG | 
[V:3] d6- | 
[V:4] D,>E,F,G,D,G,- | 
[V:1] B/c/dzA>GG | 
[V:2] z6 | 
[V:3] d2c4 | 
[V:4] G,/A,/B,/C<A,G,/F,E, | 
[V:1] FD/>E/FGDG- | 
[V:2] ABAG>AB/c/ | 
[V:3] d6 | 
[V:4] D,G,D,G,z2 | 
[V:1] G/A/B/c<AG/FE | 
[V:2] d4z2 | 
[V:3] BGA2A2 | 
[V:4] z2D,3C, | 
[V:1] D2ABAB- | 
[V:2] D>EFGDG | 
[V:3] z6 | 
[V:4] B,,2A,,G,,D,G,, | 
[V:1] B/A/GFG2^F | 
[V:2] G/A/B/c/AGA2 | 
[V:3] z6 | 
[V:4] G,E,D,E,D,2 | 
[V:1] G6 ||  
[V:2] G6 ||  
[V:3] G6 ||  
[V:4] G,,6 ||  
[V:1] [M:2/2]B4- | 
[V:2] [M:2/2]G4 | 
[V:3] [M:2/2]z4 | 
[V:4] [M:2/2]z4 | 
[V:1] B2A2 | 
[V:2] d4 | 
[V:3] z4 | 
[V:4] z4 | 
[V:1] G2c2- | 
[V:2] e2c2 | 
[V:3] z4 | 
[V:4] z4 | 
[V:1] c2B2- | 
[V:2] d4 | 
[V:3] z4 | 
[V:4] z4 | 
[V:1] BAA2- | 
[V:2] c2A2 | 
[V:3] z4 | 
[V:4] z4 | 
[V:1] A2^G2 | 
[V:2] B4 | 
[V:3] z4 | 
[V:4] z4 | 
[V:1] A2z2 | 
[V:2] A2d2 | 
[V:3] z4 | 
[V:4] z4 | 
[V:1] A2d2 | 
[V:2] d/c/B/A/G2 | 
[V:3] z4 | 
[V:4] z4 | 
[V:1] d/c/B/A/G2 | 
[V:2] DG2A | 
[V:3] z4 | 
[V:4] z4 | 
[V:1] DG2A | 
[V:2] BcA2 | 
[V:3] z4 | 
[V:4] z4 | 
[V:1] BcA2 | 
[V:2] G2zc | 
[V:3] z4 | 
[V:4] z4 | 
[V:1] G2zc | 
[V:2] BGA2 | 
[V:3] z4 | 
[V:4] z4 | 
[V:1] BGA2 | 
[V:2] Gc2d- | 
[V:3] z4 | 
[V:4] z4 | 
[V:1] B>GGA | 
[V:2] de2d- | 
[V:3] z4 | 
[V:4] z4 | 
[V:1] DFE2 | 
[V:2] dc/B/c2 | 
[V:3] z4 | 
[V:4] z4 | 
[V:1] DG>AB/c/ | 
[V:2] BG>FG | 
[V:3] z4 | 
[V:4] z4 | 
[V:1] dB2A/G/ | 
[V:2] DG>AB/c/ | 
[V:3] z4 | 
[V:4] z4 | 
[V:1] FG>AB/c/ | 
[V:2] dB2A/G/ | 
[V:3] z4 | 
[V:4] z4 | 
[V:1] AGA2 | 
[V:2] ^FG2^F | 
[V:3] z4 | 
[V:4] z4 | 
[V:1] G2z2 | 
[V:2] G2zG- | 
[V:3] z4 | 
[V:4] G,,>A,,B,,C,- | 
[V:1] z4 | 
[V:2] G/A/Bcd- | 
[V:3] z4 | 
[V:4] C,D,C,F,- | 
[V:1] z4 | 
[V:2] d/c/B/A/B2 | 
[V:3] z4 | 
[V:4] F,/E,/D,/C,/D,2 | 
[V:1] z4 | 
[V:2] cAG2 | 
[V:3] z4 | 
[V:4] A,,C,B,,G,, | 
[V:1] z4 | 
[V:2] zd>cB- | 
[V:3] z4 | 
[V:4] G,2^F,G,- | 
[V:1] z4 | 
[V:2] B/A/G2^F | 
[V:3] z4 | 
[V:4] G,B,A,2 | 
[V:1] z4 | 
[V:2] GBAG- | 
[V:3] z4 | 
[V:4] G,G,,A,,B,, | 
[V:1] z4 | 
[V:2] GED2 | 
[V:3] z4 | 
[V:4] G,,C,2B,, | 
[V:1] z4 | 
[V:2] zc2d | 
[V:3] z4 | 
[V:4] C,2F,2 | 
[V:1] z4 | 
[V:2] ce2d- | 
[V:3] z4 | 
[V:4] E,G,2F, | 
[V:1] z4 | 
[V:2] dc2B | 
[V:3] z4 | 
[V:4] E,C,D,2 | 
[V:1] z4 | 
[V:2] c2zc | 
[V:3] z4 | 
[V:4] C,2A,,2 | 
[V:1] z4 | 
[V:2] Bd2c | 
[V:3] z4 | 
[V:4] G,,>A,,B,,C, | 
[V:1] z2c2 | 
[V:2] BGA2 | 
[V:3] z4 | 
[V:4] D,E,F,2 | 
[V:1] Bd2c | 
[V:2] G>ABc | 
[V:3] z4 | 
[V:4] G,>F,G,A, | 
[V:1] BGA2 | 
[V:2] def2 | 
[V:3] z4 | 
[V:4] G,E,D,2 | 
[V:1] G3F/E/ | 
[V:2] g2z2 | 
[V:3] z4 | 
[V:4] G,B,2A,/G,/ | 
[V:1] DE>DG- | 
[V:2] z4 | 
[V:3] z4 | 
[V:4] F,G,>F,G, | 
[V:1] G^FGB- | 
[V:2] z2G2- | 
[V:3] z4 | 
[V:4] A,2z2 | 
[V:1] BA/G/^FG- | 
[V:2] G^F/E/DE- | 
[V:3] z4 | 
[V:4] z4 | 
[V:1] G/^F/GA2 | 
[V:2] E/D/G2^F | 
[V:3] z4 | 
[V:4] z2D,2 | 
[V:1] G2z2 | 
[V:2] G4 | 
[V:3] z4 | 
[V:4] G,,C,>D,E, | 
[V:1] z4 | 
[V:2] ABGc- | 
[V:3] z4 | 
[V:4] F,G,2F,/E,/ | 
[V:1] z2zG,- | 
[V:2] cfeg | 
[V:3] z4 | 
[V:4] D,2C,E,- | 
[V:1] G,/A,/B,/C/DG- | 
[V:2] g>fde- | 
[V:3] z4 | 
[V:4] E,D,/C,/B,,C,- | 
[V:1] GF/E/D2 | 
[V:2] e/d/c2B | 
[V:3] z4 | 
[V:4] C,/B,,/C,D,2 | 
[V:1] E2C3/D/ | 
[V:2] c2A3/B/ | 
[V:3] z4 | 
[V:4] C,2F,3/E,/ | 
[V:1] EFD3/E/ | 
[V:2] cdB3/c/ | 
[V:3] z4 | 
[V:4] E,D,G,3/F,/ | 
[V:1] FGE3/F/ | 
[V:2] dec3/d/ | 
[V:3] z4 | 
[V:4] F,E,A,3/G,/ | 
[V:1] GAFD- | 
[V:2] efd2 | 
[V:3] z4 | 
[V:4] G,F,_B,3/A,/ | 
[V:1] DG2^F | 
[V:2] BGA2 | 
[V:3] z4 | 
[V:4] G,E,D,2 | 
[V:1] G2G3/F/ | 
[V:2] G2zG- | 
[V:3] z4 | 
[V:4] G,,3C,- | 
[V:1] E/D/ECF- | 
[V:2] G2A2- | 
[V:3] z4 | 
[V:4] C,/B,,/C,A,,D,- | 
[V:1] F/E/FDG- | 
[V:2] AB3 | 
[V:3] z4 | 
[V:4] D,/C,/D,B,,E,- | 
[V:1] G/F/GEA- | 
[V:2] c3d- | 
[V:3] z4 | 
[V:4] E,/D,/E,C,F,- | 
[V:1] A/G/F/E/DG- | 
[V:2] d2Be- | 
[V:3] z4 | 
[V:4] F,/E,/F,G,E,- | 
[V:1] GED2 | 
[V:2] edB2 | 
[V:3] z4 | 
[V:4] E,F,G,2 | 
[V:1] E4 ||  
[V:2] c4 ||  
[V:3] z4 ||  
[V:4] C,4 ||  
[V:1] [M:3/2]z6 | 
[V:2] [M:3/2]d6 | 
[V:3] [M:3/2]G6- | 
[V:4] [M:3/2]G,,2>A,,2B,,2 | 
[V:1] G2>A2B2 | 
[V:2] e3d/c/d2 | 
[V:3] G6 | 
[V:4] C,2C,2G,,2 | 
[V:1] c2>B2G2 | 
[V:2] c6 | 
[V:3] G6 | 
[V:4] C,2>D,2E,2 | 
[V:1] F>GA_BAF | 
[V:2] A2>G2AB | 
[V:3] d6 | 
[V:4] D,>E,F,G,F,D, | 
[V:1] EGCc>de- | 
[V:2] c6 | 
[V:3] e6 | 
[V:4] C,2zC,2C- | 
[V:1] ed/c/Bc2B | 
[V:2] z2z2g2 | 
[V:3] c2d4 | 
[V:4] CB,/A,/G,F,G,2 | 
[V:1] c2zc2B/A/ | 
[V:2] ecf2e2- | 
[V:3] c6 | 
[V:4] A,>G,F,3/E,//D,//C,2- | 
[V:1] G>FG2A2- | 
[V:2] ee>def3/e/ | 
[V:3] c4A2- | 
[V:4] C,C,C,2F,2 | 
[V:1] AG/F/E2zC | 
[V:2] c2z2z2 | 
[V:3] A2c4 | 
[V:4] F,>E,C,2A,,2 | 
[V:1] E>FGAB2 | 
[V:2] z6 | 
[V:3] G2d4 | 
[V:4] C,2G,,2D,2 | 
[V:1] cB2A2G | 
[V:2] z2f2d2 | 
[V:3] cdcA_B2 | 
[V:4] E,D,F,2G,2 | 
[V:1] A4z2 | 
[V:2] dc/B<AB/cd | 
[V:3] A6 | 
[V:4] D,4A,,3/B,,/ | 
[V:1] z6 | 
[V:2] cf>ed>cB/A/ | 
[V:3] z6 | 
[V:4] C,D,C,F,>E,D,/C,/ | 
[V:1] F2EG2A | 
[V:2] B2zcBc | 
[V:3] z6 | 
[V:4] D,2C,2z2 | 
[V:1] FG2F/E/D2 | 
[V:2] ABGAB2- | 
[V:3] z6 | 
[V:4] z2C,2B,,2- | 
[V:1] D2C2z2 | 
[V:2] B2zG2A | 
[V:3] z6 | 
[V:4] B,,2C,2B,,C, | 
[V:1] zG,B,CD2 | 
[V:2] FG2ED2 | 
[V:3] z6 | 
[V:4] A,,B,,G,,A,,B,,2 | 
[V:1] EF>ED/C<B,A,/ | 
[V:2] z6 | 
[V:3] z6 | 
[V:4] C,D,>E,F,G,2 | 
[V:1] CG2AGE- | 
[V:2] G2EFEG- | 
[V:3] c4c2- | 
[V:4] C,2z2C,3/D,/ | 
[V:1] ECFEF3/G/ | 
[V:2] GA>Bcd3/c/ | 
[V:3] c2A4 | 
[V:4] E,F,>G,A,D,2- | 
[V:1] A2B2cA- | 
[V:2] A2z2ef | 
[V:3] d4c2 | 
[V:4] D,2G,2A,F, | 
[V:1] A/B/GA/G/^F/E/F2 | 
[V:2] d2d>cAd | 
[V:3] B2A4 | 
[V:4] G,2D,4 | 
[V:1] Gd2c/B/AB | 
[V:2] B2Gdcd- | 
[V:3] G4z2 | 
[V:4] G,,2G,,2A,,G,,- | 
[V:1] BA/G/^FG2F | 
[V:2] dc/B/AGA2 | 
[V:3] z6 | 
[V:4] G,,/A,,/B,,/C,/D,E,D,2 | 
[V:1] G6 |]  
[V:2] G6 |]  
[V:3] G6 |]  
[V:4] G,,6 |]  


